icons/glyphs/glyph-link.svg

<?xml version="1.0" encoding="UTF-8" standalone="no"?><svg height="22" viewBox="0 0 5.8208332 5.8208335" width="22" xmlns="http://www.w3.org/2000/svg"><sodipodi:namedview/><metadata><rdf:RDF><cc:Work><dc:format>image/svg+xml</dc:format><dc:type/><dc:title/></cc:Work></rdf:RDF></metadata><path d="m2.024446 1.6401762c-.5713841 0-1.05398846.3863515-1.21180069.9085748h-.4454663c-.20329496 0-.3671789.1633329-.3671789.3666278s.16388395.3671788.36717891.3671788h.44932551c.16176111.5163787.64110587.8980995 1.20794147.8980995h1.7901348c.5694285 0 1.0489274-.3852684 1.2079414-.9052668h.4311321c.2032949 0 .3671789-.1633326.3671789-.3666275s-.163884-.3671788-.3671789-.3671788h-.4316833c-.1596176-.5185139-.6386586-.9014078-1.2073902-.9014078zm0 .7338066h1.7901348c.1583166 0 .2959082.064111.3925396.1676012h-.7861818c-.2032949 0-.3660763.1638839-.3660763.3671788s.1627814.3666275.3660763.3666275h.7883873c-.096723.1055307-.2351468.1714604-.3947451.1714604h-1.7901348c-.156231 0-.2933457-.062684-.3903344-.1642931h.7095484c.2032951 0 .3666276-.1638839.3666276-.3671788s-.1633325-.3666278-.3666276-.3666278h-.7189209c.0973986-.1075434.2379289-.1747682.3997069-.1747682z" fill="#d0d0d0"/></svg>

<?xml version="1.0" encoding="UTF-8" standalone="no"?>
<!-- Created with Inkscape (http://www.inkscape.org/) -->

<svg
   xmlns:dc="http://purl.org/dc/elements/1.1/"
   xmlns:cc="http://creativecommons.org/ns#"
   xmlns:rdf="http://www.w3.org/1999/02/22-rdf-syntax-ns#"
   xmlns:svg="http://www.w3.org/2000/svg"
   xmlns="http://www.w3.org/2000/svg"
   xmlns:sodipodi="http://sodipodi.sourceforge.net/DTD/sodipodi-0.dtd"
   xmlns:inkscape="http://www.inkscape.org/namespaces/inkscape"
   width="22"
   height="22"
   viewBox="0 0 5.8208332 5.8208335"
   version="1.1"
   id="svg8"
   inkscape:version="0.92+devel 15703 custom"
   sodipodi:docname="glyph-link.svg">
  <defs
     id="defs2" />
  <sodipodi:namedview
     id="base"
     pagecolor="#002466"
     bordercolor="#ffffff"
     borderopacity="0.29019608"
     inkscape:pageopacity="1"
     inkscape:pageshadow="2"
     inkscape:zoom="18.681818"
     inkscape:cx="12.455602"
     inkscape:cy="6.4733682"
     inkscape:document-units="px"
     inkscape:current-layer="svg8"
     inkscape:document-rotation="0"
     showgrid="false"
     units="px"
     inkscape:showpageshadow="false"
     borderlayer="true"
     inkscape:window-width="1920"
     inkscape:window-height="1054"
     inkscape:window-x="0"
     inkscape:window-y="0"
     inkscape:window-maximized="1"
     inkscape:measure-start="9.25109,15.3253"
     inkscape:measure-end="9.25109,12.6878" />
  <metadata
     id="metadata5">
    <rdf:RDF>
      <cc:Work
         rdf:about="">
        <dc:format>image/svg+xml</dc:format>
        <dc:type
           rdf:resource="http://purl.org/dc/dcmitype/StillImage" />
        <dc:title></dc:title>
      </cc:Work>
    </rdf:RDF>
  </metadata>
  <path
     style="color:#000000;font-style:normal;font-variant:normal;font-weight:normal;font-stretch:normal;font-size:medium;line-height:normal;font-family:sans-serif;font-variant-ligatures:normal;font-variant-position:normal;font-variant-caps:normal;font-variant-numeric:normal;font-variant-alternates:normal;font-variant-east-asian:normal;font-feature-settings:normal;text-indent:0;text-align:start;text-decoration:none;text-decoration-line:none;text-decoration-style:solid;text-decoration-color:#000000;letter-spacing:normal;word-spacing:normal;text-transform:none;writing-mode:lr-tb;direction:ltr;text-orientation:mixed;dominant-baseline:auto;baseline-shift:baseline;text-anchor:start;white-space:normal;shape-padding:0;clip-rule:nonzero;display:inline;overflow:visible;visibility:visible;opacity:1;isolation:auto;mix-blend-mode:normal;color-interpolation:sRGB;color-interpolation-filters:linearRGB;solid-color:#000000;solid-opacity:1;vector-effect:none;fill:#d0d0d0;fill-opacity:1;fill-rule:nonzero;stroke:none;stroke-width:0.6879167;stroke-linecap:square;stroke-linejoin:miter;stroke-miterlimit:4;stroke-dasharray:none;stroke-dashoffset:0;stroke-opacity:1;color-rendering:auto;image-rendering:auto;shape-rendering:auto;text-rendering:auto;enable-background:accumulate"
     d="m 2.024446,1.6401762 c -0.5713841,0 -1.05398846,0.3863515 -1.21180069,0.9085748 H 0.36717901 C 0.16388405,2.548751 1.05e-7,2.7120839 1.05e-7,2.9153788 c 0,0.2032949 0.163883945,0.3671788 0.367178905,0.3671788 H 0.81650453 C 0.97826564,3.7989363 1.4576104,4.1806571 2.024446,4.1806571 h 1.7901348 c 0.5694285,0 1.0489274,-0.3852684 1.2079414,-0.9052668 h 0.4311321 c 0.2032949,0 0.3671789,-0.1633326 0.3671789,-0.3666275 0,-0.2032949 -0.163884,-0.3671788 -0.3671789,-0.3671788 H 5.021971 C 4.8623534,2.0230701 4.3833124,1.6401762 3.8145808,1.6401762 Z m 0,0.7338066 h 1.7901348 c 0.1583166,0 0.2959082,0.064111 0.3925396,0.1676012 H 3.4209386 c -0.2032949,0 -0.3660763,0.1638839 -0.3660763,0.3671788 0,0.2032949 0.1627814,0.3666275 0.3660763,0.3666275 H 4.2093259 C 4.1126029,3.380921 3.9741791,3.4468507 3.8145808,3.4468507 H 2.024446 c -0.156231,0 -0.2933457,-0.062684 -0.3903344,-0.1642931 H 2.34366 c 0.2032951,0 0.3666276,-0.1638839 0.3666276,-0.3671788 0,-0.2032949 -0.1633325,-0.3666278 -0.3666276,-0.3666278 H 1.6247391 C 1.7221377,2.4412076 1.862668,2.3739828 2.024446,2.3739828 Z"
     id="path4277"
     inkscape:label="#"
     inkscape:connector-curvature="0" />
</svg>
